icons/binary-16.svg

<?xml version="1.0" encoding="UTF-8"?><svg id="icons" xmlns="http://www.w3.org/2000/svg" viewBox="0 0 16 16"><defs><style>.cls-1{fill:none;}.cls-1,.cls-2{stroke-width:0px;}</style></defs><path class="cls-2" d="M14,1h-1c-.55127,0-1,.44824-1,1v4c0,.55176.44873,1,1,1h1c.55127,0,1-.44824,1-1V2c0-.55176-.44873-1-1-1ZM14,6h-1V2h1v4h.00098-.00098ZM9,6h1v1h-3v-1h1V2h-1v-1h2v5ZM14,14h1v1h-3v-1h1v-4h-1v-1h2v5ZM4,1h-1c-.55127,0-1,.44824-1,1v4c0,.55176.44873,1,1,1h1c.55127,0,1-.44824,1-1V2c0-.55176-.44873-1-1-1ZM4,6h-1V2h1v4h.00098-.00098ZM9,9h-1c-.55127,0-1,.44824-1,1v4c0,.55176.44873,1,1,1h1c.55127,0,1-.44824,1-1v-4c0-.55176-.44873-1-1-1ZM9,14h-1v-4h1v4h.00098-.00098ZM4,14h1v1h-3v-1h1v-4h-1v-1h2v5Z"/><rect class="cls-1" width="16" height="16"/></svg>

<svg xmlns="http://www.w3.org/2000/svg" viewBox="0 0 16 16"><path d="M14 1h-1c-.551 0-1 .448-1 1v4c0 .552.449 1 1 1h1c.551 0 1-.448 1-1V2c0-.552-.449-1-1-1zm0 5h-1V2h1v4h.001H14zM9 6h1v1H7V6h1V2H7V1h2v5zm5 8h1v1h-3v-1h1v-4h-1V9h2v5zM4 1H3c-.551 0-1 .448-1 1v4c0 .552.449 1 1 1h1c.551 0 1-.448 1-1V2c0-.552-.449-1-1-1zm0 5H3V2h1v4h.001H4zm5 3H8c-.551 0-1 .448-1 1v4c0 .552.449 1 1 1h1c.551 0 1-.448 1-1v-4c0-.552-.449-1-1-1zm0 5H8v-4h1v4h.001H9zm-5 0h1v1H2v-1h1v-4H2V9h2v5z" stroke-width="0"/><path stroke-width="0" fill="none" d="M0 0h16v16H0z"/></svg>
